X:2074 
T:Untitled 
C:Traditional
O:Isle of Man
Z:Clague collection
B:Kiaull Vannin #74
N:This revised version has been re-barred and the time signature changed by C.Jerry. 
M:3/2 
L:1/4
K:D
A2F ED2 | D2D FF2 | D2F AB2|A2G FE2|
F2A/B/ =cB2|A2F DF2|D2F AB2|A2F ED2||

